app/assets/images/Contenido/Odin/Deportes.svg

<svg fill="none" height="130" viewBox="0 0 117 130" width="117" xmlns="http://www.w3.org/2000/svg"><circle cx="57.8345" cy="45.4964" r="44.3397" stroke="#000" stroke-width="2.31337"/><g fill="#000"><path d="m13.0268 124.873v-14.218h6.2153c4.6107 0 7.759 2.843 7.759 7.109 0 4.265-3.1483 7.109-7.759 7.109zm2.6405-2.234h3.4529c3.1686 0 5.2201-1.93 5.2201-4.875s-2.0515-4.875-5.2201-4.875h-3.4529zm24.093-3.128c0 .203-.0203.508-.0406.751h-8.5106c.3047 1.585 1.6249 2.6 3.5139 2.6 1.2187 0 2.1734-.386 2.9452-1.178l1.3609 1.564c-.975 1.158-2.4983 1.767-4.367 1.767-3.6358 0-5.9919-2.336-5.9919-5.565 0-3.23 2.3764-5.545 5.606-5.545 3.1686 0 5.4841 2.214 5.4841 5.606zm-5.4841-3.575c-1.6453 0-2.8437 1.056-3.0874 2.64h6.1544c-.2031-1.564-1.4015-2.64-3.067-2.64zm13.9351-2.031c3.1687 0 5.5045 2.193 5.5045 5.545 0 3.372-2.3358 5.565-5.5045 5.565-1.3811 0-2.5998-.467-3.4732-1.462v5.26h-2.539v-14.786h2.4171v1.421c.8531-1.035 2.1124-1.543 3.5951-1.543zm-.2843 8.937c1.828 0 3.2092-1.32 3.2092-3.392s-1.3812-3.392-3.2092-3.392c-1.8281 0-3.2296 1.32-3.2296 3.392s1.4015 3.392 3.2296 3.392zm13.0714 2.173c-3.3311 0-5.7684-2.315-5.7684-5.565s2.4373-5.545 5.7684-5.545c3.3718 0 5.7888 2.295 5.7888 5.545s-2.417 5.565-5.7888 5.565zm0-2.173c1.8484 0 3.2296-1.32 3.2296-3.392s-1.3812-3.392-3.2296-3.392c-1.828 0-3.2092 1.32-3.2092 3.392s1.3812 3.392 3.2092 3.392zm10.6338-7.231c.7312-1.138 2.0515-1.706 3.8592-1.706v2.417c-.2234-.041-.4062-.061-.589-.061-1.9296 0-3.1483 1.137-3.1483 3.351v5.261h-2.539v-10.846h2.4171zm12.2188 6.865.7109 1.808c-.6093.487-1.5233.731-2.4373.731-2.3765 0-3.7374-1.259-3.7374-3.656v-5.22h-1.7874v-2.031h1.7874v-2.478h2.539v2.478h2.9045v2.031h-2.9045v5.159c0 1.056.5281 1.625 1.503 1.625.5281 0 1.0359-.142 1.4218-.447zm12.6389-2.965c0 .203-.0203.508-.0406.751h-8.5106c.3047 1.585 1.625 2.6 3.514 2.6 1.2186 0 2.1733-.386 2.9451-1.178l1.3609 1.564c-.9749 1.158-2.4983 1.767-4.367 1.767-3.6358 0-5.9919-2.336-5.9919-5.565 0-3.23 2.3765-5.545 5.606-5.545 3.1686 0 5.4841 2.214 5.4841 5.606zm-5.4841-3.575c-1.6452 0-2.8436 1.056-3.0874 2.64h6.1544c-.2031-1.564-1.4015-2.64-3.067-2.64zm11.2742 9.079c-1.808 0-3.6153-.528-4.5903-1.219l.975-1.929c.9546.63 2.4173 1.076 3.7783 1.076 1.604 0 2.275-.446 2.275-1.198 0-2.072-6.7033-.122-6.7033-4.448 0-2.052 1.8484-3.392 4.7733-3.392 1.442 0 3.087.345 4.062.934l-.975 1.93c-1.036-.61-2.071-.813-3.107-.813-1.544 0-2.275.508-2.275 1.219 0 2.194 6.703.244 6.703 4.489 0 2.031-1.869 3.351-4.916 3.351z"/><path d="m58.3597 19c-14.5579 0-26.3597 11.8018-26.3597 26.3597s11.8018 26.3597 26.3597 26.3597 26.3597-11.8018 26.3597-26.3597c-.0163-14.551-11.8087-26.3434-26.3597-26.3597zm20.4137 12.644-1.8268 7.7654-9.6245 3.2079-8.0838-6.4659v-9.5275l9.2259-3.6901c4.1771 1.8924 7.7458 4.9077 10.3092 8.7102zm.1467 27.1988-8.7136 1.3759-4.7446-6.2677 2.4171-9.6652 9.5177-3.1718 5.4521 6.5423c-.3716 3.9947-1.7209 7.8367-3.9287 11.1865zm-32.3686 1.382-8.7523-1.382c-2.2078-3.3507-3.5567-7.1935-3.9278-11.1891l5.4479-6.5423 9.5176 3.1718 2.4172 9.6704zm-12.7865-15.1929c.0468-3.9196 1.0357-7.771 2.8831-11.2282l1.4253 6.0627zm19.1301 8.2357-2.3309-9.3332 7.7955-6.2359 7.7972 6.2385-2.3327 9.3306zm25.7509-13.4047 1.4252-6.0626c1.8474 3.4571 2.8364 7.3081 2.8831 11.2282zm-12.5779-17.8623-7.7084 3.0831-7.7496-3.0689c5.0162-1.6719 10.4387-1.6767 15.458-.0142zm-17.855.9534 9.2679 3.6729v9.5245l-8.0838 6.4659-9.6244-3.2079-1.8269-7.7654c2.5549-3.7888 6.1082-6.7963 10.2672-8.69zm-8.9457 37.8997 7.1425 1.1284 4.3195 6.7658c-4.4989-1.4776-8.4777-4.2178-11.462-7.8942zm13.9812 8.5708-5.2432-8.2087 4.643-6.1909h11.4225l4.7095 6.2209-4.5687 8.0071c-3.594.885-7.3416.9451-10.9622.1759zm13.4038-.9044 3.745-6.5539 7.058-1.1133c-2.8354 3.4918-6.571 6.1428-10.803 7.6672z"/></g></svg>

<svg width="117" height="130" viewBox="0 0 117 130" fill="none" xmlns="http://www.w3.org/2000/svg">
<circle cx="57.8345" cy="45.4964" r="44.3397" stroke="black" stroke-width="2.31337"/>
<path d="M13.0268 124.873V110.655H19.2421C23.8528 110.655 27.0011 113.498 27.0011 117.764C27.0011 122.029 23.8528 124.873 19.2421 124.873H13.0268ZM15.6673 122.639H19.1202C22.2888 122.639 24.3403 120.709 24.3403 117.764C24.3403 114.819 22.2888 112.889 19.1202 112.889H15.6673V122.639ZM39.7603 119.511C39.7603 119.714 39.74 120.019 39.7197 120.262H31.2091C31.5138 121.847 32.834 122.862 34.723 122.862C35.9417 122.862 36.8964 122.476 37.6682 121.684L39.0291 123.248C38.0541 124.406 36.5308 125.015 34.6621 125.015C31.0263 125.015 28.6702 122.679 28.6702 119.45C28.6702 116.22 31.0466 113.905 34.2762 113.905C37.4448 113.905 39.7603 116.119 39.7603 119.511ZM34.2762 115.936C32.6309 115.936 31.4325 116.992 31.1888 118.576H37.3432C37.1401 117.012 35.9417 115.936 34.2762 115.936ZM48.2113 113.905C51.38 113.905 53.7158 116.098 53.7158 119.45C53.7158 122.822 51.38 125.015 48.2113 125.015C46.8302 125.015 45.6115 124.548 44.7381 123.553V128.813H42.1991V114.027H44.6162V115.448C45.4693 114.413 46.7286 113.905 48.2113 113.905ZM47.927 122.842C49.755 122.842 51.1362 121.522 51.1362 119.45C51.1362 117.378 49.755 116.058 47.927 116.058C46.0989 116.058 44.6974 117.378 44.6974 119.45C44.6974 121.522 46.0989 122.842 47.927 122.842ZM60.9984 125.015C57.6673 125.015 55.23 122.7 55.23 119.45C55.23 116.2 57.6673 113.905 60.9984 113.905C64.3702 113.905 66.7872 116.2 66.7872 119.45C66.7872 122.7 64.3702 125.015 60.9984 125.015ZM60.9984 122.842C62.8468 122.842 64.228 121.522 64.228 119.45C64.228 117.378 62.8468 116.058 60.9984 116.058C59.1704 116.058 57.7892 117.378 57.7892 119.45C57.7892 121.522 59.1704 122.842 60.9984 122.842ZM71.6322 115.611C72.3634 114.473 73.6837 113.905 75.4914 113.905V116.322C75.268 116.281 75.0852 116.261 74.9024 116.261C72.9728 116.261 71.7541 117.398 71.7541 119.612V124.873H69.2151V114.027H71.6322V115.611ZM83.851 122.476L84.5619 124.284C83.9526 124.771 83.0386 125.015 82.1246 125.015C79.7481 125.015 78.3872 123.756 78.3872 121.359V116.139H76.5998V114.108H78.3872V111.63H80.9262V114.108H83.8307V116.139H80.9262V121.298C80.9262 122.354 81.4543 122.923 82.4292 122.923C82.9573 122.923 83.4651 122.781 83.851 122.476ZM96.4899 119.511C96.4899 119.714 96.4696 120.019 96.4493 120.262H87.9387C88.2434 121.847 89.5637 122.862 91.4527 122.862C92.6713 122.862 93.626 122.476 94.3978 121.684L95.7587 123.248C94.7838 124.406 93.2604 125.015 91.3917 125.015C87.7559 125.015 85.3998 122.679 85.3998 119.45C85.3998 116.22 87.7763 113.905 91.0058 113.905C94.1744 113.905 96.4899 116.119 96.4899 119.511ZM91.0058 115.936C89.3606 115.936 88.1622 116.992 87.9184 118.576H94.0728C93.8697 117.012 92.6713 115.936 91.0058 115.936ZM102.28 125.015C100.472 125.015 98.6647 124.487 97.6897 123.796L98.6647 121.867C99.6193 122.497 101.082 122.943 102.443 122.943C104.047 122.943 104.718 122.497 104.718 121.745C104.718 119.673 98.0147 121.623 98.0147 117.297C98.0147 115.245 99.8631 113.905 102.788 113.905C104.23 113.905 105.875 114.25 106.85 114.839L105.875 116.769C104.839 116.159 103.804 115.956 102.768 115.956C101.224 115.956 100.493 116.464 100.493 117.175C100.493 119.369 107.196 117.419 107.196 121.664C107.196 123.695 105.327 125.015 102.28 125.015Z" fill="black"/>
<path d="M58.3597 19C43.8018 19 32 30.8018 32 45.3597C32 59.9176 43.8018 71.7194 58.3597 71.7194C72.9176 71.7194 84.7194 59.9176 84.7194 45.3597C84.7031 30.8087 72.9107 19.0163 58.3597 19ZM78.7734 31.644L76.9466 39.4094L67.3221 42.6173L59.2383 36.1514V26.6239L68.4642 22.9338C72.6413 24.8262 76.21 27.8415 78.7734 31.644ZM78.9201 58.8428L70.2065 60.2187L65.4619 53.951L67.879 44.2858L77.3967 41.114L82.8488 47.6563C82.4772 51.651 81.1279 55.493 78.9201 58.8428ZM46.5515 60.2248L37.7992 58.8428C35.5914 55.4921 34.2425 51.6493 33.8714 47.6537L39.3193 41.1114L48.8369 44.2832L51.2541 53.9536L46.5515 60.2248ZM33.765 45.0319C33.8118 41.1123 34.8007 37.2609 36.6481 33.8037L38.0734 39.8664L33.765 45.0319ZM52.8951 53.2676L50.5642 43.9344L58.3597 37.6985L66.1569 43.937L63.8242 53.2676H52.8951ZM78.646 39.8629L80.0712 33.8003C81.9186 37.2574 82.9076 41.1084 82.9543 45.0285L78.646 39.8629ZM66.0681 22.0006L58.3597 25.0837L50.6101 22.0148C55.6263 20.3429 61.0488 20.3381 66.0681 22.0006ZM48.2131 22.954L57.481 26.6269V36.1514L49.3972 42.6173L39.7728 39.4094L37.9459 31.644C40.5008 27.8552 44.0541 24.8477 48.2131 22.954ZM39.2674 60.8537L46.4099 61.9821L50.7294 68.7479C46.2305 67.2703 42.2517 64.5301 39.2674 60.8537ZM53.2486 69.4245L48.0054 61.2158L52.6484 55.0249H64.0709L68.7804 61.2458L64.2117 69.2529C60.6177 70.1379 56.8701 70.198 53.2495 69.4288L53.2486 69.4245ZM66.6524 68.5201L70.3974 61.9662L77.4554 60.8529C74.62 64.3447 70.8844 66.9957 66.6524 68.5201Z" fill="black"/>
</svg>
